teeny/outline/reddit.svg

<svg width="15" height="15" viewBox="0 0 15 15" fill="none" xmlns="http://www.w3.org/2000/svg">
<path d="M7.5 1.5L7.62127 1.01493C7.4719 0.977586 7.31365 1.01114 7.19229 1.1059C7.07094 1.20065 7 1.34603 7 1.5L7.5 1.5ZM13 9.5C13 10.2739 12.4494 11.141 11.4167 11.8427C10.4 12.5335 8.99818 13 7.49999 13V14C9.1957 14 10.7939 13.4749 11.9787 12.6698C13.1476 11.8756 14 10.7427 14 9.5H13ZM7.49999 13C6.00179 13 4.59995 12.5335 3.58328 11.8427C2.55064 11.141 2 10.2739 2 9.5H1C1 10.7427 1.8524 11.8756 3.02128 12.6698C4.20612 13.4749 5.80427 14 7.49999 14V13ZM2 9.5C2 8.72605 2.55064 7.85895 3.58328 7.15732C4.59995 6.46653 6.00179 6 7.49999 6V5C5.80427 5 4.20612 5.52514 3.02128 6.33018C1.8524 7.12438 1 8.25729 1 9.5H2ZM7.49999 6C8.99818 6 10.4 6.46653 11.4167 7.15732C12.4494 7.85896 13 8.72605 13 9.5H14C14 8.25728 13.1476 7.12438 11.9787 6.33018C10.7939 5.52514 9.1957 5 7.49999 5V6ZM9.80587 10.5392C9.11667 10.8296 8.48673 11 7.5 11V12C8.63646 12 9.39807 11.7962 10.1941 11.4608L9.80587 10.5392ZM7.5 11C6.51327 11 5.88333 10.8296 5.19413 10.5392L4.80587 11.4608C5.60193 11.7962 6.36354 12 7.5 12V11ZM7.99999 5.5L8 1.5L7 1.5L6.99999 5.5L7.99999 5.5ZM7.37873 1.98507L11.3787 2.98507L11.6213 2.01493L7.62127 1.01493L7.37873 1.98507ZM3.9742 6.84146C3.68814 5.98588 2.85391 5.54382 2.02178 5.54382V6.54382C2.53246 6.54382 2.90767 6.80522 3.0258 7.15854L3.9742 6.84146ZM2.02178 5.54382C0.905006 5.54382 0 6.44883 0 7.5656H1C1 7.00111 1.45729 6.54382 2.02178 6.54382V5.54382ZM0 7.5656C0 8.58917 0.760702 9.4235 1.74 9.56064L1.87868 8.5703C1.38003 8.50047 1 8.07721 1 7.5656H0ZM11.9742 7.15854C12.0923 6.80522 12.4675 6.54382 12.9782 6.54382V5.54382C12.1461 5.54382 11.3119 5.98587 11.0258 6.84146L11.9742 7.15854ZM12.9782 6.54382C13.5427 6.54382 14 7.00111 14 7.5656H15C15 6.44883 14.095 5.54382 12.9782 5.54382V6.54382ZM14 7.5656C14 8.07721 13.62 8.50047 13.1213 8.5703L13.26 9.56064C14.2393 9.4235 15 8.58917 15 7.5656H14ZM12.5 3C12.2239 3 12 2.77614 12 2.5H11C11 3.32843 11.6716 4 12.5 4V3ZM13 2.5C13 2.77614 12.7761 3 12.5 3V4C13.3284 4 14 3.32843 14 2.5H13ZM12.5 2C12.7761 2 13 2.22386 13 2.5H14C14 1.67157 13.3284 1 12.5 1V2ZM12.5 1C11.6716 1 11 1.67157 11 2.5H12C12 2.22386 12.2239 2 12.5 2V1ZM5 9H6V8H5V9ZM9 9H10V8H9V9Z" fill="black"/>
</svg>

<svg viewBox="0 0 15 15" xmlns="http://www.w3.org/2000/svg"><path d="M7.5 1.5l.12-.49c-.15-.04-.31-.01-.43.09 -.13.09-.2.24-.2.39h.5Zm5.5 8c0 .77-.56 1.64-1.59 2.34 -1.02.69-2.42 1.15-3.92 1.15v1c1.69 0 3.29-.53 4.47-1.34 1.16-.8 2.02-1.93 2.02-3.17h-1ZM7.49 13c-1.5 0-2.91-.47-3.92-1.16 -1.04-.71-1.59-1.57-1.59-2.35h-1c0 1.24.85 2.37 2.02 3.16 1.18.8 2.78 1.33 4.47 1.33v-1Zm-5.5-3.5c0-.78.55-1.65 1.58-2.35 1.01-.7 2.41-1.16 3.91-1.16v-1c-1.7 0-3.3.52-4.48 1.33C1.83 7.11.97 8.24.97 9.48h1ZM7.48 6c1.49 0 2.9.46 3.91 1.15 1.03.7 1.58 1.56 1.58 2.34h1c0-1.25-.86-2.38-2.03-3.17 -1.19-.81-2.79-1.34-4.48-1.34v1Zm2.3 4.53c-.69.29-1.32.46-2.31.46v1c1.13 0 1.89-.21 2.69-.54l-.39-.93Zm-2.31.46c-.99 0-1.62-.18-2.31-.47l-.39.92c.79.33 1.55.53 2.69.53v-1Zm.49-5.5l0-4h-1l-.01 4h1Zm-.63-3.52l3.99 1 .24-.98 -4.01-1 -.25.97ZM3.92 6.82c-.29-.86-1.13-1.3-1.96-1.3v1c.51 0 .88.26 1 .61l.94-.32Zm-1.96-1.3c-1.12 0-2.03.9-2.03 2.02h1c0-.57.45-1.03 1.02-1.03v-1ZM-.07 7.54c0 1.02.76 1.85 1.74 1.99l.13-1c-.5-.07-.88-.5-.88-1.01h-1Zm11.97-.41c.11-.36.49-.62 1-.62v-1c-.84 0-1.67.44-1.96 1.29l.94.31Zm1-.62c.56 0 1.02.45 1.02 1.02h1c0-1.12-.91-2.03-2.03-2.03v1Zm1.02 1.02c0 .51-.38.93-.88 1l.13.99c.97-.14 1.74-.98 1.74-2h-1Zm-1.5-4.57c-.28 0-.5-.23-.5-.5h-1c0 .82.67 1.5 1.5 1.5v-1Zm.5-.5c0 .27-.23.5-.5.5v1c.82 0 1.5-.68 1.5-1.5h-1Zm-.5-.5c.27 0 .5.22.5.5h1c0-.83-.68-1.5-1.5-1.5v1Zm0-1c-.83-.001-1.5.67-1.5 1.5h1c0-.28.22-.5.5-.5v-1Zm-7.5 8h1v-1h-1v1Zm4 0h1v-1h-1v1Z"/></svg>
